cmd/conneroh/_static/dist/svg/medal.svg

<svg height="18" viewBox="0 0 18 18" width="18" xmlns="http://www.w3.org/2000/svg"><g fill="none" stroke="#fff" stroke-linecap="round" stroke-linejoin="round" stroke-width="2" transform="scale(.75)"><path d="m7.208333 15-4.546875-7.859375c-.401041-.692708-.348958-1.557292.130209-2.203125l1.609375-2.135417c.375-.505208.96875-.802083 1.598958-.802083h12c.630208 0 1.223958.296875 1.598958.802083l1.598959 2.135417c.484375.640625.541666 1.505208.140625 2.203125l-4.546875 7.859375m-5.791667-3-5.880208-9.802083m7.880208 9.802083 5.880208-9.802083m-10.880208 4.802083h8"/><path d="m17 17c0 2.760417-2.239583 5-5 5s-5-2.239583-5-5 2.239583-5 5-5 5 2.239583 5 5zm0 0"/><path d="m12 18v-2h-.5"/></g></svg>

<svg xmlns="http://www.w3.org/2000/svg" width="24" height="24" fill="none" stroke="white" stroke-linecap="round" stroke-linejoin="round" stroke-width="2">
    <path d="M7.21 15 2.66 7.14a2 2 0 0 1 .13-2.2L4.4 2.8A2 2 0 0 1 6 2h12a2 2 0 0 1 1.6.8l1.6 2.14a2 2 0 0 1 .14 2.2L16.79 15M11 12 5.12 2.2M13 12l5.88-9.8M8 7h8"/>
    <circle cx="12" cy="17" r="5"/>
    <path d="M12 18v-2h-.5"/>
</svg>
